X:1
T:Orsus a cop
T:Orsus a cop
T:Thomas Crecquillon
C:Thomas Crecquillon
%%score [ 1 [ 2 3 ] 4 ]
L:1/8
Q:1/4=90
M:2/2
K:C
V:1 treble nm="Superius" snm="S"
V:2 treble-8 nm="Tenor 1" snm="T 1"
V:3 treble-8 nm="Tenor 2" snm="T 2"
V:4 bass nm="Bassus" snm="B"
V:1
 G2 GG GBBc | B2 G2 A2 B2 | cB AG FEFG | AB cA B2 A2- | AG G4 F2 | G8 | z4 z2 D2 | GA BG ABcc | %8
w: Or- sus a cop, or- sus a|cop qu'on se res-|veil- * * * * * * *|||le,|ve-|nez _ ou- * ir le chant me|
 B2 A2 G2 z G | cd ec deff | e2 c2 Bc dB | c2 GA Bc d2- | dc c4 B2 | c2 z c c2 c2 | B2 A2 B2 c2- | %15
w: lo- di- eulx, ve-|nez _ ou- * ir le chant me-|lo- di- eulx, _ _ _|_ me- * * * lo-|* * * di-|eulx du ros- si-|gnol qui ne som-|
 cB AG A2 A2 | GF GA BA c2 | BA A4 G2 | A2 z A A2 A2 | B2 c2 B2 A2 | G2 F2 E2 e2 | d2 c2 B2 A2- | %22
w: * * * * * meil-|||le, et va chan-|tant en son chant|gra- ti- eulx, [gra-||
 AG G4 F2 | G4 G2 GG |: GBBc B2 G2 | A2 B2 cB AG | FE FG AB cA | B2 A3 G G2- |"^#" G2 F2 G4 |1 %29
w: * * * ti-|eulx,] ung bon a-|my,- ung bon a- my pour|l'aul- tre veil- * * *|||* * le,|
[M:2/4] G2 GG :|2[M:2/2] G2 F2 G4- || G8 |] %32
w: ung bon a-|(veil)- * le.|_|
V:2
 d2 de d2 g2 | g2 d2 f4 | g2 e2 d4 | e3 f g2 e2- | e2 c2 d4 | B2 G2 cd ec | d2 c2 B3 A | %7
w: Or- sus a cop, or-|sus a cop|qu'on se res-|veil- * * *||||
 G2 g2 e3 f | g2 c4 B2 | AG g4 f2 | g2 e2 d4 | z2 e2 g2 g2 | a4 g4 | e2 c2 cd ef | g2 f2 g4 | %15
w: |||* * le,|ve- nez ou-|ir le|chant me- lo- * * *||
 c6 d2 | e4 f2 g2 | f4 e4 | z2 e2 f2 f2 | g2 g2 g2 f2 | e2 d2 c4 | z2 g2 g2 e2 | f2 e2 d4 | %23
w: ||di- eulx|du ros- si-|gnol qui ne som-|meil- * le,|et va chan-|tant gra- ti-|
 d4 d2 de |: d2 g2 g2 d2 | f4 g2 e2 | d4 e3 f | g2 e4 c2 | d4 B4 |1[M:2/4] d2 de :|2 %30
w: eulx, un bon a-|my pour l'aul- tre|veil- * *|||* le,|ung bon a-|
[M:2/2] d4 B4- || B8 |] %32
w: (veil)- le.|_|
V:3
 B2 Bc Bdde | d2 B2 c2 d2 | ed cB AG AB | cd ec d2 c2- | cB AG A4 | G4 z4 | z8 | z2 G2 cd ec | %8
w: Or- sus a cop, or- sus a|cop qu'on se res-|veil- * * * * * * *|||le,||ve- nez _ ou- *|
 deff e2 d2- | d2 c2 B2 A2 | c4 z2 G2 | cdec d2 d2 | e2 f2 d4 | c2 e2 e2 e2 | d2 c2 d2 e2 | A8 | %16
w: ir le chant me- lo- di-||eulx ve-|nez- ou- ir la chant me-|lo- * di-|eulx du ros- si-|gnol qui ne som-|meil-|
 B3 c d2 e2 | d3 c B4 | A2 c2 c2 c2 | d2 e2 d2 c2 | B2 A2 G2 g2 | f2 e2 d2 c2- | cB BA/G/ A4 | %23
w: ||le, et va chan-|tant en son chant|gra- ti- eulx, [gra-||* * * * * ti-|
 G4 B2 Bc |: Bdde d2 B2 | c2 d2 ed cB | AG AB cd ec | d2 c3 B BA/G/ | A4 G4 |1[M:2/4] B2 Bc :|2 %30
w: eulx,] ung bon a-|my,- ung bon a- my pour|l'aul- tre veil- * * *|||* le,|ung bon a-|
[M:2/2] A4 G4- || G8 |] %32
w: (veil)- le.|_|
V:4
 G,2 G,C, G,G,G,C | G,2 G,2 F,2 D,2 | C,4 D,3 C, | A,,2 A,2 G,2 C,2 | E,4 D,4 | E,4 z2 C,2 | %6
w: Or- sus a cop, or- sus a|cop qu'on se res-|veil- * *|||le, ve-|
 F,G, A,F, G,3 F, | E,2 E,2 A,2 A,2 | G,2 F,2 C,2 G,2 | F,2 E,2 D,4 | C,2 C,2 G,A, B,G, | %11
w: vez _ ou- * ir _|_ le chant me-|lo- di- eulx, ve-|nez _ ou-|ir, ve- nez _ ou- *|
 A,B,CC G,2 B,2 | A,2 F,2 G,4 | z2 A,2 A,2 C2 | G,2 A,2 G,2 E,2 | F,8 | E,4 D,2 C,2 |"^#" D,4 E,4 | %18
w: ir le chant me- lo- *|* di- eulx|du ros- si-|gnol qui ne som-|meil-|||
 z2 A,2 F,2 A,2 | G,2 C,2 G,2 A,2 | E,2 F,2 C,4 | z2 C2 G,2 A,2 | F,2 G,2 D,4 | z4 G,2 G,C, |: %24
w: et va chan-|tant en son chant|gra- ti- eulx,|et va chan-|tant gra- ti-|ung bon a-|
 G,G,G,C G,2 G,2 | F,2 D,2 C,4 |"^#" D,3 C, A,,2 A,2 | G,2 C,2 E,4 | D,4 z4 |1[M:2/4] G,2 G,C, :|2 %30
w: my,- ung bon a- my pour|l'aul- tre veil-|||le,|ung bon a-|
[M:2/2] D,4 G,4- || G,8 |] %32
w: (veil)- le.|_|

